X: 6053
T: Cape Kiwanda
R: hornpipe
M: 4/4
K: Adorian
|:ABce aecB|AcEA cBAc|GDBA Gged|BDBA GGGB|
ABce aecB|AcEA cBAc|cAEc BGDB|1 AGAB AAAE:|2 AGAB AAAB||
|:cdef ggfg|aecA EAcA|~d2BA GdBd|~d2BA GGAB|
cdef ggfg|aecA EAcA|cAdB ecce|1 cEcB AAAB:|2 cEcB A4||

